!!!!SEGMENT: pl-wtm--r-1461--002_stefani-jozef--wszechstronne-cwiczenia-glosowe-do-re-mi.krn
!!!cenid: 18xx:2179
!!!COM: Stefani, Józef
!!!COM-rismid: pe30024097
!!!CDT: 1800/04/16-1876/03/19
!!!CNT: Polish
!!!OTL: Wszechstronne ćwiczenia głosowe - Do re mi
!!!PDT:
!!!AGN: Secular
!!!SMS-siglum: PL-Wtm
!!!SMS-shelfmark: R 1461
!!!SMS-shelfwork: 002 G
!!!SMS-variant:
!!!SMS-altvar:
!!!NIFC-rismid: 1001120710
!!!URL-scan: http://repozytorium.nifc.pl/skany/pl-wtm-nut--r1461
!!!ONB-nifc: UWAGA: skan 0003, s. 2 (od 3-go systemu) – str. 3
**kern	**kern	**kern	**text	**text
*part3	*part2	*part1	*part1	*part1
*staff3	*staff2	*staff1	*staff1	*staff1
*I"Fortepian	*I"Fortepian	*I"Sopran/Tenor	*	*
*clefF4	*clefG2	*clefG2	*	*
*k[]	*k[]	*k[]	*	*
*M2/2	*M2/2	*M2/2	*	*
*met(c|)	*met(c|)	*met(c|)	*	*
=1	=1	=1	=1	=1
*2\right	*2\right	*	*	*
2C\	2c/ 2G</ 2E</	2c/	do	c
2BB\	2d/ 2G</	2d/	re	d
=2	=2	=2	=2	=2
2C\	2d/ 2G</	2d/	re	d
2BB-X\	2e/ 2c/ 2G</	2e/	mi	e
=3	=3	=3	=3	=3
2BB-X	2e/ 2c/ 2G</	2e/	mi	e
2AA\	2f 2c/	2f/	fa	f
=4	=4	=4	=4	=4
2AA\	2f 2c/	2f/	fa	f
2E 2EE\	2g 2c/	2g/	sol	g
=5	=5	=5	=5	=5
2E/ 2EE/	2g 2c/	2g/	sol	g
2F 2FF\	2a 2f 2c/	2a/	la	a
!!LO:LB:g=original
=6	=6	=6	=6	=6
2F 2FF/	2a 2f 2c/	2a/	la	a
*	*	*2\right	*	*
2D 2DD/	2b 2g 2f/	2b\	si	h
=7	=7	=7	=7	=7
2D 2DD/	2b 2g 2f/	2b\	si	h
2C 2CC/	2cc 2g 2e/	2cc\	do	c
=8	=8	=8	=8	=8
2C 2CC/	2cc 2g 2e/	2cc\	do	c
2BB 2BBB/	2dd 2g/	2dd\	re	d
=9	=9	=9	=9	=9
2BB 2BBB/	2dd 2g\	2dd\	re	d
2BB-X 2BBB-X/	2ee 2cc 2g\	2ee\	mi	e
=10	=10	=10	=10	=10
2BB-X 2BBB-X/	2ee 2cc 2g\	2ee\	mi	e
2AA 2AAA/	2ff 2cc 2f\	2ff\	fa	f
=11	=11	=11	=11	=11
2AA 2AAA/	2ff 2cc 2f\	2ff\	fa	f
2E 2EE/	2gg 2cc 2g\	2gg\	sol	g
!!LO:PB:g=original
=12	=12	=12	=12	=12
2E 2EE/	2gg 2cc 2g\	2gg\	sol	g
2F 2FF/	2aa 2ff 2cc 2a\	2aa\	la	a
=13||	=13||	=13||	=13||	=13||
2F 2FF/	2aa 2ff 2cc 2a\	2aa\	la	a
2E 2EE/	2gg 2cc 2g\	2gg\	sol	g
=14	=14	=14	=14	=14
2E 2EE/	2gg 2cc 2g\	2gg\	sol	g
2D 2DD/	2ff 2b 2g\	2ff\	fa	f
=15	=15	=15	=15	=15
2D 2DD/	2ff 2b 2g\	2ff\	fa	f
2C 2CC/	2ee 2cc 2g\	2ee\	mi	e
=16	=16	=16	=16	=16
2C 2CC/	2ee 2cc 2g\	2ee\	mi	e
2BB 2BBB/	2dd 2g\	2dd\	re	d
=17	=17	=17	=17	=17
2BB 2BBB/	2dd 2g\	2dd\	re	d
2A 2AA\	2cc 2f#X 2d/	2cc\	do	c
!!LO:LB:g=original
=18	=18	=18	=18	=18
2A 2AA\	2cc 2f#X 2d/	2cc\	do	c
2G 2GG\	2b 2g 2d/	2b\	si	h
=19	=19	=19	=19	=19
2G 2GG\	2b 2g 2d/	2b\	si	h
2D 2DD/	2a 2f#X 2d 2c/	2a/	la	a
=20	=20	=20	=20	=20
2D 2DD/	2a 2f#X 2d 2c/	2a/	la	a
2G 2GG\	2g 2d 2B/	2g/	sol	g
=21	=21	=21	=21	=21
2G 2GG\	2g/ 2d/ 2B/	2g/	sol	g
2BB 2BBB\	2f/ 2d/ 2G</	2f/	fa	f
=22	=22	=22	=22	=22
2BB 2BBB\	2f/ 2d/ 2G</	2f/	fa	f
2C 2CC\	2e/ 2c/ 2G</	2e/	mi	e
=23	=23	=23	=23	=23
2C 2CC\	2e/ 2c/ 2G</	2e/	mi	e
2F 2GG\	2d/ 2B/ 2G</	2d/	re	d
!!LO:LB:g=original
=24	=24	=24	=24	=24
2F 2GG\	2d/ 2B/ 2G</	2d/	re	d
2E 2C\	2c/ 2G</	2c/	do	c
==	==	==	==	==
*-	*-	*-	*-	*-
!!!system-decoration: s1{(s2,s3)}
!!!RDF**kern: > = above
!!!RDF**kern: < = below
!!!EED: Antoni Szymański
!!!EST: 2021-06-03
!!!ENC: Tomasz Grochalski
!!!END: 2021-05-16
